public/icon/24/envelope.svg

<svg width="24" height="24" viewBox="0 0 24 24">
  <g class="envelope">
    <path d="m12 2-9 8v11h18V10l-9-8Z" class="fill-white stroke-current stroke-2 sl-r"/>
    <path d="M5 4h14v6h2l-9 6-9-6h2V4Z" class="fill-white"/>
    <path d="m3 10 9 6 9-6" class="stroke-current stroke-2 sl-r"/>
    <path d="M19 11V4H5v7" class="stroke-current stroke-2 sl-r"/>
  </g>
</svg>

<svg width="24" height="24" viewBox="0 0 24 24" fill="none" xmlns="http://www.w3.org/2000/svg">
<path d="M12 2L3 10V21H21V10L12 2Z" fill="white" stroke="#092E24" stroke-width="2" stroke-miterlimit="10" stroke-linecap="round" stroke-linejoin="round"/>
<path d="M5 4H19V10H21L12 16L3 10H5V4Z" fill="white"/>
<path d="M3 10L12 16L21 10" stroke="#092E24" stroke-width="2" stroke-miterlimit="10" stroke-linecap="round" stroke-linejoin="round"/>
<path d="M19 11V4H5V11" stroke="#092E24" stroke-width="2" stroke-miterlimit="10" stroke-linecap="round" stroke-linejoin="round"/>
</svg>
